X:1
T:Sometime
T:Sometime
T:Robert Harkness
T:Robert Harkness, 1922
T:Public Domain Courtesy of the Cyber Hymnal™
T:Public Domain Courtesy of the Cyber Hymnal™
C:Robert Harkness
Z:Public Domain
Z:Courtesy of the Cyber Hymnal™
%%score ( 1 2 ) ( 3 4 ) ( 5 6 )
L:1/8
Q:1/4=105
M:4/4
K:F
V:1 treble 
V:2 treble 
V:3 treble 
V:4 treble 
V:5 bass 
V:6 bass 
V:1
"^Duet" [CA]2 [=B,^G]4 [CA]2 | [=B,D][B,D][B,E][B,F] [_B,G]3 [A,A] x | [CA]8 | %3
w: 1.~Some- time all|sor- rows will be o’er, Some-|time!|
w: 2.~Some- time our|loved ones we shall greet, Some-|time!|
w: 3.~Some- time, when|sets at last life’s sun, Some-|time!|
w: 4.~Some- time, I|know not when ’twill be, Some-|time!|
 [Ec]2 [D=B][CA] [=B,^G][CA] [Ec]>[DB] | ([CA]4 [B,c]4) | [Cf]2 [Ce]>[Cd] [=B,e]3 [B,d] | %6
w: All earth- ly care be known no|more! *|Oh, what re- joic- ing|
w: When in the Fa- ther’s house we|meet *|On- ly to sit for-|
w: Our jour- ney end- ed, l- abor|done, *|Oh, what a crown for|
w: My Lord will come a- gain for|me, *|Then I shall reign with|
 [B,c][CA][B,G][A,A] [A,F]4 | [=B,A]2 [B,D]6 | [CA]2 [B,C]6 | F8 |] %10
w: on the gold- en shore,|Some- time,|some- time|soon!|
w: ev- er at His feet,|Some- time,|some- time|soon!|
w: ev- ’ry vic- t’ry won,|Some- time,|some- time|soon!|
w: Him e- ter- nal- ly.|Some- time,|some- time|soon!|
V:2
 x8 | x9 | x8 | x8 | x8 | x8 | x8 | x8 | x8 | (A,2 B,2 A,4) |] %10
V:3
 [CA]2 [=B,^G]4 [CA]2 | [=B,D][B,D] [B,E][B,F] [FG]2 z A x | [CFA]8 | %3
 [Ec]2 [E=B][EA] [E^G][EA] [Gc]>[EB] | [E-A]4 [Ec]4 | [Ff]2 [Fe]>[Ed] [Ee]3 [Ed] | %6
 [Ec][EA] [EG][EA] F4 | [=B,A]2 [B,D]6 | [B,A]2 [B,C]6 | F8 |] %10
V:4
 x8 | x6 A2 x | x8 | x8 | x8 | x8 | x4 F4 | x8 | x8 | (A,2 B,2 A,4) |] %10
V:5
 z8 | [F,G,][F,G,] [E,G,][D,G,] B,3 z A, | [F,,F,]8 | [E,A,]2 [E,D][E,C] [E,=B,][E,C] [E,E]>[E,D] | %4
 ([A,C]4 [G,B,]4) | [A,C]2 [A,C]>[A,C] [^G,=B,]3 [G,B,] | [G,B,][C,C] [C,B,][^C,A,] [D,A,]4 | %7
 [G,,F,]8 | [C,E,]8 | (C,2 D,2 C,4) |] %10
V:6
 x8 | x4 _D,2 C,2 x | x8 | x8 | x8 | x8 | x8 | x8 | x8 | F,,8 |] %10

